packages/dnb-ui-lib/assets/icons/card_with_padlock_medium.svg

<svg width="24" height="24" viewBox="0 0 24 24" fill="none" xmlns="http://www.w3.org/2000/svg">
<path d="M4.5 7.25C4.08579 7.25 3.75 7.58579 3.75 8C3.75 8.41421 4.08579 8.75 4.5 8.75V7.25ZM8.25 8.75C8.66421 8.75 9 8.41421 9 8C9 7.58579 8.66421 7.25 8.25 7.25V8.75ZM4.5 15.25C4.08579 15.25 3.75 15.5858 3.75 16C3.75 16.4142 4.08579 16.75 4.5 16.75V15.25ZM10.5 16.75C10.9142 16.75 11.25 16.4142 11.25 16C11.25 15.5858 10.9142 15.25 10.5 15.25V16.75ZM11 20.25C11.4142 20.25 11.75 19.9142 11.75 19.5C11.75 19.0858 11.4142 18.75 11 18.75V20.25ZM14.25 16.25V15.5C13.8358 15.5 13.5 15.8358 13.5 16.25H14.25ZM23.25 16.25H24C24 15.8358 23.6642 15.5 23.25 15.5V16.25ZM23.25 23.25V24C23.6642 24 24 23.6642 24 23.25H23.25ZM14.25 23.25H13.5C13.5 23.6642 13.8358 24 14.25 24V23.25ZM22.5 11C22.5 11.4142 22.8358 11.75 23.25 11.75C23.6642 11.75 24 11.4142 24 11H22.5ZM2.75 5.25H21.25V3.75H2.75V5.25ZM1.5 17.5V6.5H0V17.5H1.5ZM4.5 8.75H8.25V7.25H4.5V8.75ZM4.5 16.75H10.5V15.25H4.5V16.75ZM11 18.75H2.75V20.25H11V18.75ZM0 17.5C0 19.0188 1.23122 20.25 2.75 20.25V18.75C2.05964 18.75 1.5 18.1904 1.5 17.5H0ZM21.25 5.25C21.9404 5.25 22.5 5.80964 22.5 6.5H24C24 4.98122 22.7688 3.75 21.25 3.75V5.25ZM2.75 3.75C1.23122 3.75 0 4.98122 0 6.5H1.5C1.5 5.80964 2.05964 5.25 2.75 5.25V3.75ZM22.5 16.25V23.25H24V16.25H22.5ZM23.25 22.5H14.25V24H23.25V22.5ZM15 23.25V16.25H13.5V23.25H15ZM16.75 15C16.75 13.8954 17.6454 13 18.75 13V11.5C16.817 11.5 15.25 13.067 15.25 15H16.75ZM18.75 13C19.8546 13 20.75 13.8954 20.75 15H22.25C22.25 13.067 20.683 11.5 18.75 11.5V13ZM14.25 17H16V15.5H14.25V17ZM15.25 15V16.25H16.75V15H15.25ZM16 17H21.5V15.5H16V17ZM21.5 17H23.25V15.5H21.5V17ZM20.75 15V16.25H22.25V15H20.75ZM22.5 6.5V11H24V6.5H22.5Z" fill="black"/>
<circle cx="18.75" cy="19.75" r="1" fill="black"/>
</svg>

<svg width="24" height="24" viewBox="0 0 24 24" fill="none" xmlns="http://www.w3.org/2000/svg"><path d="M4.5 7.25a.75.75 0 000 1.5v-1.5zm3.75 1.5a.75.75 0 000-1.5v1.5zm-3.75 6.5a.75.75 0 000 1.5v-1.5zm6 1.5a.75.75 0 000-1.5v1.5zm.5 3.5a.75.75 0 000-1.5v1.5zm3.25-4v-.75a.75.75 0 00-.75.75h.75zm9 0H24a.75.75 0 00-.75-.75v.75zm0 7V24a.75.75 0 00.75-.75h-.75zm-9 0h-.75c0 .414.336.75.75.75v-.75zM22.5 11a.75.75 0 001.5 0h-1.5zM2.75 5.25h18.5v-1.5H2.75v1.5zM1.5 17.5v-11H0v11h1.5zm3-8.75h3.75v-1.5H4.5v1.5zm0 8h6v-1.5h-6v1.5zm6.5 2H2.75v1.5H11v-1.5zM0 17.5a2.75 2.75 0 002.75 2.75v-1.5c-.69 0-1.25-.56-1.25-1.25H0zM21.25 5.25c.69 0 1.25.56 1.25 1.25H24a2.75 2.75 0 00-2.75-2.75v1.5zm-18.5-1.5A2.75 2.75 0 000 6.5h1.5c0-.69.56-1.25 1.25-1.25v-1.5zm19.75 12.5v7H24v-7h-1.5zm.75 6.25h-9V24h9v-1.5zm-8.25.75v-7h-1.5v7H15zM16.75 15a2 2 0 012-2v-1.5a3.5 3.5 0 00-3.5 3.5h1.5zm2-2a2 2 0 012 2h1.5a3.5 3.5 0 00-3.5-3.5V13zm-4.5 4H16v-1.5h-1.75V17zm1-2v1.25h1.5V15h-1.5zm.75 2h5.5v-1.5H16V17zm5.5 0h1.75v-1.5H21.5V17zm-.75-2v1.25h1.5V15h-1.5zm1.75-8.5V11H24V6.5h-1.5z" fill="#000"/><circle cx="18.75" cy="19.75" r="1" fill="#000"/></svg>
